!!!OTL: 1496. Die Schaeferin.
!!!ARE: Europa, Mitteleuropa, Deutschland, Ober - Hessen; Nassau; Elsass
!!!SCT: E1496
!!!TXL: @@DE
!!!YEM: Copyright 1995, estate of Helmut Schaffrath.
**kern	**text
*ICvox	*
*M4/4	*
*met(c)	*
*k[f#]	*
*G:	*
!LO:TX:a:t=Gemächlich.	!
!LO:TX:a:t=Aus dem Elſaß, Naſſau und Oberheſſen.	!
{4d	Dort,
=1	=1
4.g	wo
8d	die
8B	kla-
8d	-ren
8.g	Bächlein
16f#	.
=2	=2
4f#	rin-
4e	-nen,
4r}	.
{8aL	ſah
8bJ	.
=3	=3
4.cc	ich
8b	von
8a	fern
8d	ein
8.b/	Hütt-
16a	-chen
=4	=4
2g	ſtehn,
4r}	.
{4d	Dort
=5	=5
4.g	wohnt
8d	von
8B	al-
8d	-len
8.g	Schä-
16f#	-fe-
=6	=6
4f#	-rin-
4e	-nen
4r}	.
{8aL	die
8bJ	.
=7	=7
4.cc	ſchön-
8b	-ſte,
8a	die
8d	ich
8.b/	je
16a	ge-
=8	=8
2g	-ſehn.
4r}	.
{4b/	Und
=9	=9
4.a	bö-
8b/	-te
8a	man
8a	mir
8g	gold-
8g	-ne
=10	=10
8f#L	Kro-
8aJ	.
4dd	-nen,
4r}	.
{8a/L	ſo
8ddJ	.
=11	=11
4.cc#	denk
8b	ich
8a	doch
8a	in
8g	mei-
8g	-nem
=12	=12
(4f#	Sinn
4ccn	.
4b)}	.
{4a	Jm
=13	=13
4.g	Hüttchen
8d	.
8B	möcht
8d	ich
8.g	lie-
16f#	-ber
=14	=14
4f#	woh-
4e	-nen,
4r}	.
{8aL	dort
8bJ	.
=15	=15
4.cc	bei
8b	der
8a	ſchönen
8d	.
8.b/	Schä-
16a	-fe-
=16	=16
2g	-rin!
4r}	.
==	==
!!!AGN: Staende - Lied, Hirten -,  Schaefer - Lied
!!!ONB: ESAC (Essen Associative Code) Database: ERK3
!!!AMT: simple quadruple
!!!AIN: vox
!!!EED: Helmut Schaffrath
!!!EEV: 1.0
!!!GTL: Staendelieder (Berufslieder). 3. Hirtenlieder. Schaeferlieder.
!!!URL-scan: https://rosdok.uni-rostock.de/mcrviewer/recordIdentifier/rosdok_ppn745177999/iview2/phys_0352.iview2?x=-128.77276441889285&y=152.70851851720363&scale=0.5870222003877487&rotation=0&layout=singlePageLayout
!!!ENC: Anna Maria Matuszewska
!!!EEV: 2025/03/01
*-	*-
